entry/src/main/resources/rawfile/ic_translate.svg

<svg width="24" height="24" viewBox="0 0 24 24" fill="none" xmlns="http://www.w3.org/2000/svg">
<mask id="mask0_321_16" style="mask-type:alpha" maskUnits="userSpaceOnUse" x="0" y="0" width="24" height="24">
<rect width="24" height="24" fill="#D9D9D9"/>
</mask>
<g mask="url(#mask0_321_16)">
<path d="M15.075 18.95L14.225 21.375C14.1583 21.5583 14.0417 21.7083 13.875 21.825C13.7083 21.9417 13.525 22 13.325 22C12.9917 22 12.7208 21.8625 12.5125 21.5875C12.3042 21.3125 12.2667 21.0083 12.4 20.675L16.2 10.625C16.2833 10.4417 16.4083 10.2917 16.575 10.175C16.7417 10.0583 16.925 10 17.125 10H17.875C18.075 10 18.2583 10.0583 18.425 10.175C18.5917 10.2917 18.7167 10.4417 18.8 10.625L22.6 20.7C22.7333 21.0167 22.7 21.3125 22.5 21.5875C22.3 21.8625 22.0333 22 21.7 22C21.4833 22 21.2958 21.9417 21.1375 21.825C20.9792 21.7083 20.8583 21.55 20.775 21.35L19.925 18.95H15.075ZM9.05 13.975L4.7 18.3C4.51667 18.4833 4.2875 18.5792 4.0125 18.5875C3.7375 18.5958 3.5 18.5 3.3 18.3C3.11667 18.1167 3.025 17.8833 3.025 17.6C3.025 17.3167 3.11667 17.0833 3.3 16.9L7.65 12.55C7.06667 11.9667 6.5375 11.3 6.0625 10.55C5.5875 9.8 5.15 8.95 4.75 8H6.85C7.18333 8.65 7.51667 9.21667 7.85 9.7C8.18333 10.1833 8.58333 10.6667 9.05 11.15C9.6 10.6 10.1708 9.82917 10.7625 8.8375C11.3542 7.84583 11.8 6.9 12.1 6H2C1.71667 6 1.47917 5.90417 1.2875 5.7125C1.09583 5.52083 1 5.28333 1 5C1 4.71667 1.09583 4.47917 1.2875 4.2875C1.47917 4.09583 1.71667 4 2 4H8V3C8 2.71667 8.09583 2.47917 8.2875 2.2875C8.47917 2.09583 8.71667 2 9 2C9.28333 2 9.52083 2.09583 9.7125 2.2875C9.90417 2.47917 10 2.71667 10 3V4H16C16.2833 4 16.5208 4.09583 16.7125 4.2875C16.9042 4.47917 17 4.71667 17 5C17 5.28333 16.9042 5.52083 16.7125 5.7125C16.5208 5.90417 16.2833 6 16 6H14.1C13.75 7.2 13.225 8.43333 12.525 9.7C11.825 10.9667 11.1333 11.9333 10.45 12.6L12.85 15.05L12.1 17.1L9.05 13.975ZM15.7 17.2H19.3L17.5 12.1L15.7 17.2Z" fill="#FFD728"/>
</g>
</svg>

<svg xmlns="http://www.w3.org/2000/svg" width="24" height="24" fill="none" viewBox="0 0 24 24">
  <mask id="a" width="24" height="24" x="0" y="0" maskUnits="userSpaceOnUse" style="mask-type:alpha">
    <path fill="#D9D9D9" d="M0 0h24v24H0z"/>
  </mask>
  <g mask="url(#a)">
    <path fill="#fff" d="m15.075 18.95-.85 2.425a.926.926 0 0 1-.35.45.938.938 0 0 1-.55.175.974.974 0 0 1-.813-.413c-.208-.274-.245-.579-.112-.912l3.8-10.05c.083-.183.208-.333.375-.45a.938.938 0 0 1 .55-.175h.75c.2 0 .383.058.55.175.167.117.292.267.375.45L22.6 20.7c.133.317.1.613-.1.887a.941.941 0 0 1-.8.413.922.922 0 0 1-.563-.175 1.1 1.1 0 0 1-.362-.475l-.85-2.4h-4.85ZM9.05 13.975 4.7 18.3a.977.977 0 0 1-.688.287.93.93 0 0 1-.712-.287.948.948 0 0 1-.275-.7.95.95 0 0 1 .275-.7l4.35-4.35a11.562 11.562 0 0 1-1.588-2C5.588 9.8 5.15 8.95 4.75 8h2.1c.333.65.667 1.217 1 1.7.333.483.733.967 1.2 1.45.55-.55 1.12-1.32 1.712-2.313C11.354 7.847 11.8 6.9 12.1 6H2a.968.968 0 0 1-.712-.287A.968.968 0 0 1 1 5a.97.97 0 0 1 .288-.713A.968.968 0 0 1 2 4h6V3a.97.97 0 0 1 .287-.712A.968.968 0 0 1 9 2a.97.97 0 0 1 .713.288A.968.968 0 0 1 10 3v1h6a.97.97 0 0 1 .712.287c.192.192.288.43.288.713s-.096.52-.288.713A.968.968 0 0 1 16 6h-1.9c-.35 1.2-.875 2.433-1.575 3.7-.7 1.267-1.392 2.233-2.075 2.9l2.4 2.45-.75 2.05-3.05-3.125ZM15.7 17.2h3.6l-1.8-5.1-1.8 5.1Z"/>
  </g>
</svg>
